X:342
T: OP DOE GROENE WESE
N: E0966A
O: Europa, Mitteleuropa, Deutschland; Russland, Litauen
R: Tanz - Lied, Reigen, Mai - Tanz
M: 2/4
L: 1/8
K: C
 | G,CB,D | CCG,z
A,2B,2 | C2z
G, | G,CB,D | CCG,
G, | A,F,F,A, | G,E,E,
C | B,G,A,B, | C2z2

